!!!!SEGMENT: pl-sa--600-a-ix-80--001_anonim--mazur-cos-tak-oczka-zaplakala.krn
!!!cenid: 18xx:666
!!!COM: Anonim
!!!COM-rismID: pe30004985
!!!CDT:
!!!CNT:
!!!OTL: Mazur - Coś tak oczka zapłakała
!!!PDT:
!!!AGN: Secular; Mazurka
!!!SMS-siglum: PL-SA
!!!SMS-shelfmark: 600/A IX 80
!!!SMS-shelfwork: 001 W
!!!SMS-variant:
!!!SMS-altvar:
!!!NIFC-rismSourceID: 1001065558
!!!NIFC-rismChildID: 1001065558
!!!NIFC-islandoraID: none
!!!URL-pdf-islandora:
!!!URL-scan: https://bc.bdsandomierz.pl/dlibra/publication/1408/edition/1376/content @EN{Scan in the Sandomierz Diocese Digital Library} @PL{Skany w portalu Cyfrowa Biblioteka Diecezjalna w Sandomierzu}
!!!IIIF:
!!!ONB-nifc: Str. 1
!!!AIN: 2 piano
!!!key:
**kern	**kern	**text
*part2	*part1	*part1
*staff2	*staff1	*staff1
*Ipiano	*Ipiano	*
*I"Piano	*I"Piano	*
*clefF4	*clefG2	*
*k[b-]	*k[b-]	*
*F:	*F:	*
*M3/8	*M3/8	*
=1	=1	=1
!	!LO:TX:a:i:t=Mazur	!
!LO:TX:a:t=P:problem=wszystkie ósemki mają caudy z prawej storny	!LO:TX:a:t=P:problem= metrum zapisane z kreską ułamkową	!
8F\L	16a/LL	coś
.	16g/JJ	tak
8A\ 8c	8f/L	o-
8A\J 8c	8f/J	-czka
=2	=2	=2
*rep	*	*
!LO:TX:a:t=P:problem=brak oznaczeń cyfrowych przy powtórzeniach	!	!
8F\L	16f/LL	za-
.	16g/JJ	-pła-
8A\ 8c	8a/L	-ka-
8A\J 8c	8a/J	-ła,
*Xrep	*	*
=3	=3	=3
8C\L	16b-/LL	ko-
.	16a/JJ	-cha-
8G\ 8B-	8g/L	-ne-
8G\J 8B-	8f/J	-czko
=4	=4	=4
*rep	*	*
8C\L	16e/LL	mo-
.	16d/JJ	-ja
8G\ 8B-	8e/L	mi-
8G\J 8B-	8c/J	-ła
*Xrep	*	*
=5	=5	=5
8F\L	16a/LL	czy
.	16g/JJ	Cię
8A\ 8c	8f/L	Mat-
8A\J 8c	8f/J	-ka
=6	=6	=6
*rep	*	*
8F\L	16f/LL	po-
.	16g/JJ	-ła-
8A\ 8c	8a/L	-ja-
8A\J 8c	8a/J	-ła
*Xrep	*	*
=7	=7	=7
!LO:TX:a:t=P:problem=mixed beam	!	!
8C/L	16b-/LL	czyś
.	16a/JJ	ba-
8G\ 8B-\	8g/L	-ran-
8G\J 8B-\	8f/J	-ki
=8	=8	=8
*rep	*	*
!LO:TX:a:t=P:problem=mixed beam	!	!
8C/L	16e/LL	po-
.	16d/JJ	-gu-
8G\ 8B-	8e/L	-bi-
8G\J 8B-	8c/J	-ła
*Xrep	*	*
!!LO:LB:g=original
=9||	=9||	=9||
!LO:TX:a:t=P:problem=brak znaków przy kluczu w drugim systemie	!	!
!LO:TX:a:t=P:problem=mixed beam	!LO:TX:a:t=P:problem= brak znaków przy kluczu w drugim systemie	!
8C/L	8.c/L	Oj
8G\ 8B-\	.	.
.	16e/Jk	nie
8G\J 8B-\	16g/LL	to
.	16cc/JJ	to
=10	=10	=10
8F\L	16a/LL	nie
.	16f/JJ	to
8A\ 8c	16a/LL	nie
.	16f/JJ	to
8A\J 8c	16a/LL	to
.	16cc/JJ	to.
=11	=11	=11
8C\L	16b-/LL	co
.	16a/JJ	mnie
8G\ 8B-	16g/LL	nie-
.	16a/JJ	-spo-
8G\J 8B-	16b-/LL	-koj-
.	16cc/JJ	-ną
=12	=12	=12
8F\L	8a/L	czy-
8A\ 8c	8f/J	-ni
8A\J 8c	8r	.
=13	=13	=13
8C\L	8.c/L	Oj
8G\ 8B-	.	.
.	16e/Jk	nie
8G\J 8B-	16g/LL	to
.	16b-/JJ	to
=14	=14	=14
8F\L	16a/LL	nie
.	16f/JJ	to
8A\ 8c	16a/LL	nie
.	16f/JJ	to
8A\J 8c	16a/LL	to
.	16cc/JJ	to
=15	=15	=15
!LO:TX:a:t=P:problem=mixed beam	!	!
8C/L	16b-/LL	Co
.	16a/JJ	mnie
8G\ 8B-\	16g/LL	nie-
.	16a/JJ	-spo-
8G\J 8B-\	16b-/LL	-koj-
.	16e/JJ	-ną
=16	=16	=16
!LO:N:vis=4	!	!
8F\	8g/L	czy-
!LO:N:vis=4	!	!
8A\ 8c	8f/J	-ni.
8r	8r	.
=:|	=:|	=:|
*-	*-	*-
!!!system-decoration: [(s1,s2)]
!!!RDF**kern: > = above
!!!RDF**kern: < = below
!!!EED: Mateusz Mrugas
!!!EEV: 2020-11-25
!!!ENC: Andrzej Kubiczek
!!!END: 2020-06-22
!!!YEC: Copyright 2022 Narodowy Instytut Fryderyka Chopina (https://polishscores.org)
!!!YEM: License CC-BY-4.0 (https://creativecommons.org/licenses/by/4.0)
